css/elements/social/Facebook.svg

<svg width="437" height="437" viewBox="0 0 437 437" fill="none" xmlns="http://www.w3.org/2000/svg">
<g clip-path="url(#clip0)">
<path d="M436 102.09C435.985 94.2224 435.272 86.3717 433.87 78.63C432.11 69.17 429.51 59.99 425.06 51.46C420.336 42.4737 414.202 34.3033 406.89 27.26C395.848 16.3977 382.164 8.60143 367.19 4.64C353.47 0.93 339.37 0.19 325.28 0.19C325.19 0.09 325.19 0.09 325.19 0H111.19V0.19C103.12 0.37 95.19 0.28 87.19 1.3C78.4097 2.08107 69.7677 3.99704 61.48 7C48.564 11.758 36.8948 19.3824 27.35 29.3C16.4637 40.3703 8.63843 54.0775 4.64 69.08C1 82.71 0.19 96.62 0.19 110.62L0 325.47C0.28 335.2 0.37 344.94 2 354.58C3.76 364.78 6.17 374.7 10.9 383.98C17.1545 396.386 26.1231 407.225 37.14 415.69C44.9935 421.913 53.8503 426.753 63.33 430C77.33 434.54 91.8 436.3 106.54 436.3C115.72 436.4 124.81 436.58 133.99 436.58C166.81 436.49 199.73 436.58 232.56 436.58V290.69H183.5V232.09H232.56V190.09C232.56 190.09 229.03 120.36 297.74 114.79H349.85V167.79H311.93C311.93 167.79 295.79 170.89 293.2 186V231H347.35L341.35 287.1H292.27V436.37C305.99 436.27 319.81 436.18 333.53 435.99C342.31 435.812 351.059 434.882 359.68 433.21C376 430.326 391.19 422.942 403.54 411.89C418.19 398.81 428.02 382.89 432.47 363.58C435.35 350.97 436.09 338.17 436.27 325.37V322.78C436.37 321.94 436 104.87 436 102.09Z" fill="#ECF2FB"/>
</g>
<defs>
<clipPath id="clip0">
<rect width="436.29" height="436.55" fill="white"/>
</clipPath>
</defs>
</svg>

<svg xmlns="http://www.w3.org/2000/svg" viewBox="0 0 436.29 436.55">
  <defs>
    <style>
      .cls-1 {
        fill: #fff;
      }
    </style>
  </defs>
  <g id="Layer_2" data-name="Layer 2">
    <g id="Capa_1" data-name="Capa 1">
      <path class="cls-1" d="M436,102.09a133.1,133.1,0,0,0-2.13-23.46c-1.76-9.46-4.36-18.64-8.81-27.17a94.94,94.94,0,0,0-18.17-24.2A89.11,89.11,0,0,0,367.19,4.64C353.47.93,339.37.19,325.28.19c-.09-.1-.09-.1-.09-.19h-214V.19c-8.07.18-16,.09-24,1.11A102,102,0,0,0,61.48,7,91.05,91.05,0,0,0,27.35,29.3,89.67,89.67,0,0,0,4.64,69.08C1,82.71.19,96.62.19,110.62L0,325.47H0c.28,9.73.37,19.47,2,29.11,1.76,10.2,4.17,20.12,8.9,29.4a92.51,92.51,0,0,0,26.24,31.71A88.18,88.18,0,0,0,63.33,430c14,4.54,28.47,6.3,43.21,6.3,9.18.1,18.27.28,27.45.28,32.82-.09,65.74,0,98.57,0V290.69H183.5v-58.6h49.06v-42s-3.53-69.73,65.18-75.3h52.11v53H311.93S295.79,170.89,293.2,186v45h54.15l-6,56.1H292.27V436.37c13.72-.1,27.54-.19,41.26-.38a153.78,153.78,0,0,0,26.15-2.78,89,89,0,0,0,43.86-21.32c14.65-13.08,24.48-29,28.93-48.31,2.88-12.61,3.62-25.41,3.8-38.21v-2.59C436.37,321.94,436,104.87,436,102.09Z"/>
    </g>
  </g>
</svg>
